frontend/public/svg/misc/trophy.svg

<svg width="143" height="154" viewBox="0 0 143 154" fill="none" xmlns="http://www.w3.org/2000/svg">
<path d="M36.9723 124.313C37.3464 117.996 37.6765 112.228 38.0336 106.46C38.327 101.728 40.0197 99.7842 44.721 99.1239C47.4186 98.7452 50.1732 98.7786 52.878 98.4373C53.829 98.3172 55.2054 97.8722 55.5434 97.1699C58.1372 91.7735 60.5388 86.2839 62.9488 80.8008C63.1213 80.1175 63.1981 79.4135 63.1772 78.7091C57.093 76.8799 51.1006 74.6326 46.9978 69.8151C42.8445 64.9346 37.7802 62.9576 31.761 61.6509C23.9358 59.9278 16.6383 56.3524 10.4812 51.2249C6.25376 47.7388 3.05731 43.1657 1.23601 37.9978C-2.52612 27.799 5.19504 11.359 19.8924 11.8959C23.4806 12.0271 27.0773 11.9149 30.6892 11.9149C31.4111 9.33224 31.9362 7.11444 32.6674 4.97018C33.3795 2.88893 34.6213 1.49558 37.1659 1.3991C46.7557 1.03812 56.3349 0.289851 65.926 0.111983C78.1627 -0.114453 90.4074 0.0713539 102.649 0.0785736C111.156 0.0844807 112.256 0.931813 114.388 9.2673C116.93 9.2673 119.513 9.2673 122.095 9.2673C124.064 9.2673 126.033 9.18256 127.994 9.27379C136.78 9.68138 142.926 16.3662 142.129 25.1217C140.479 43.2215 126.744 57.6105 111.091 59.9228C107.08 60.5135 104.987 61.9719 102.901 65.228C98.1226 72.6794 91.2009 77.4726 81.9964 79.477C82.4053 80.8068 82.7236 82.0158 83.1476 83.1867C85.1862 88.8246 88.7376 93.5371 92.4912 98.0953C93.0025 98.7169 94.1511 99.0142 95.0365 99.087C96.9918 99.2511 98.9673 99.1527 100.934 99.2079C105.911 99.3463 107.27 100.586 107.704 105.62C108.107 110.3 108.371 114.991 108.71 119.676C108.764 120.422 108.888 121.163 109.005 122.111C110.595 122.189 112.107 122.197 113.604 122.348C117.702 122.762 119.964 124.819 120.436 128.935C121.158 135.215 121.86 141.507 122.215 147.814C122.478 152.449 120.781 153.768 116.105 153.671C95.7854 153.252 75.4658 152.764 55.1437 152.532C46.8456 152.438 38.5383 152.992 30.2376 153.135C24.2781 153.238 22.5335 150.934 23.3093 144.962C23.8429 140.856 24.0359 136.692 24.196 132.552C24.4369 126.317 25.2462 125.507 31.9408 124.348C33.4064 124.096 34.9547 124.313 36.9723 124.313ZM38.8855 6.83945C38.7167 7.0527 38.5768 7.28727 38.4694 7.53713C38.3525 8.06968 38.2666 8.60863 38.2121 9.15113C36.8456 22.4452 38.3126 35.8778 42.5164 48.5635C46.2575 59.8657 53.8953 67.7778 65.9529 70.6565C82.2589 74.5499 93.6746 68.6652 99.9584 53.087C103.115 45.2602 105.455 37.2312 106.052 28.7638C106.561 21.5539 106.037 14.4038 105.042 6.84209L38.8855 6.83945ZM114.452 130.551L30.1044 131.47C30.5947 136.596 31.0534 141.395 31.4617 145.662L113.01 144.719C113.476 140.142 113.947 135.518 114.452 130.551ZM45.1588 105.708C45.8584 112.186 46.4715 117.85 47.0825 123.526L97.7006 122.501C98.2821 117.22 98.8164 112.397 99.3913 107.153L45.1588 105.708ZM30.4568 18.1882C26.4 18.754 22.7521 19.3158 19.0897 19.7595C15.3912 20.2078 12.9569 22.2634 11.1972 25.4237C8.47279 30.3154 8.9657 35.9592 12.7003 40.7229C16.7407 45.8751 22.2113 48.9855 28.1655 51.3431C30.4319 52.2403 32.7849 52.9183 35.5959 53.8634C31.4676 42.0021 30.6662 30.3836 30.4555 18.1882H30.4568ZM109.971 50.1925C119.671 47.2679 126.045 41.6431 129.872 33.3352C131.257 30.1503 132.161 26.777 132.553 23.326C133.001 19.9019 131.341 17.7471 128.228 17.5292C123.823 17.2168 119.379 17.4498 114.693 17.4498C115.284 28.5683 113.68 39.6944 109.97 50.1925H109.971ZM63.7699 98.333H81.638C79.3258 92.2946 77.0575 86.366 74.6907 80.1839L70.1206 79.9411C68.0072 86.0673 65.9667 91.9678 63.7686 98.333H63.7699Z" fill="black"/>
</svg>

<svg xmlns="http://www.w3.org/2000/svg" width="143" height="154" fill="none" viewBox="0 0 143 154"><path fill="#000" d="M36.972 124.313c.374-6.317.704-12.085 1.062-17.853.293-4.732 1.986-6.676 6.687-7.336 2.698-.379 5.452-.345 8.157-.687.951-.12 2.327-.565 2.665-1.267 2.594-5.397 4.996-10.886 7.406-16.37.172-.682.25-1.386.228-2.09-6.084-1.83-12.076-4.077-16.18-8.895-4.153-4.88-9.217-6.857-15.236-8.164a50.1 50.1 0 0 1-21.28-10.426 30.1 30.1 0 0 1-9.245-13.227c-3.762-10.199 3.959-26.639 18.656-26.102 3.589.131 7.185.019 10.797.019.722-2.583 1.247-4.8 1.978-6.945.712-2.081 1.954-3.474 4.499-3.57 9.59-.362 19.169-1.11 28.76-1.288 12.237-.226 24.481-.04 36.723-.033 8.507.005 9.607.853 11.739 9.188h7.707c1.969 0 3.938-.084 5.899.007 8.786.407 14.932 7.092 14.135 15.848-1.65 18.1-15.385 32.489-31.038 34.8-4.011.592-6.104 2.05-8.19 5.306-4.778 7.451-11.7 12.245-20.905 14.249.41 1.33.728 2.539 1.152 3.71 2.038 5.638 5.59 10.35 9.343 14.908.511.622 1.66.92 2.546.992 1.955.164 3.93.066 5.897.12 4.977.14 6.336 1.379 6.77 6.413.403 4.68.667 9.371 1.006 14.056.054.746.178 1.487.295 2.435 1.59.078 3.102.086 4.599.237 4.098.414 6.36 2.471 6.832 6.587.722 6.28 1.424 12.572 1.779 18.879.263 4.635-1.434 5.954-6.11 5.857-20.32-.419-40.64-.907-60.961-1.139-8.298-.094-16.606.46-24.906.603-5.96.103-7.704-2.201-6.929-8.173.534-4.106.727-8.27.887-12.41.24-6.235 1.05-7.045 7.745-8.204 1.465-.252 3.014-.035 5.031-.035M38.885 6.839a3 3 0 0 0-.416.698 14 14 0 0 0-.257 1.614 94.6 94.6 0 0 0 4.304 39.412c3.742 11.303 11.38 19.215 23.437 22.093 16.306 3.894 27.722-1.99 34.005-17.569 3.157-7.827 5.497-15.856 6.094-24.323.509-7.21-.015-14.36-1.01-21.922zm75.567 123.712-84.348.919 1.358 14.192 81.548-.943zm-69.293-24.843c.7 6.478 1.313 12.142 1.924 17.818l50.618-1.025c.581-5.281 1.115-10.104 1.69-15.348zm-14.702-87.52c-4.057.566-7.705 1.128-11.367 1.572-3.699.448-6.133 2.503-7.893 5.664-2.724 4.891-2.231 10.535 1.503 15.299 4.04 5.152 9.511 8.263 15.466 10.62 2.266.897 4.619 1.575 7.43 2.52-4.128-11.86-4.93-23.48-5.14-35.675m79.514 32.005c9.7-2.925 16.074-8.55 19.901-16.858a35 35 0 0 0 2.681-10.009c.448-3.424-1.212-5.579-4.325-5.797-4.405-.312-8.849-.08-13.535-.08a84.8 84.8 0 0 1-4.723 32.743zm-46.2 48.14h17.868l-6.947-18.15-4.57-.242c-2.114 6.126-4.154 12.027-6.352 18.392"/></svg>
